src/svg/darth-stanley.svg

<?xml version="1.0" encoding="UTF-8" standalone="no"?>
<!-- Created with Inkscape (http://www.inkscape.org/) -->

<svg
   xmlns:dc="http://purl.org/dc/elements/1.1/"
   xmlns:cc="http://creativecommons.org/ns#"
   xmlns:rdf="http://www.w3.org/1999/02/22-rdf-syntax-ns#"
   xmlns:svg="http://www.w3.org/2000/svg"
   xmlns="http://www.w3.org/2000/svg"
   xmlns:sodipodi="http://sodipodi.sourceforge.net/DTD/sodipodi-0.dtd"
   xmlns:inkscape="http://www.inkscape.org/namespaces/inkscape"
   sodipodi:docname="darth-stanley.svg"
   viewBox="0 0 32 32"
   inkscape:version="0.91 r13725"
   version="1.1"
   id="svg3354"
   height="32"
   width="32">
  <defs
     id="defs3356">
    <inkscape:path-effect
       effect="ruler"
       id="path-effect3356"
       is_visible="true"
       unit="px"
       mark_distance="20"
       mark_length="14"
       minor_mark_length="7"
       major_mark_steps="5"
       shift="0"
       offset="0"
       mark_dir="left"
       border_marks="both" />
  </defs>
  <sodipodi:namedview
     inkscape:snap-tangential="true"
     inkscape:snap-perpendicular="true"
     inkscape:snap-nodes="false"
     inkscape:snap-others="false"
     inkscape:snap-to-guides="false"
     inkscape:window-maximized="0"
     inkscape:window-y="159"
     inkscape:window-x="1707"
     inkscape:window-height="758"
     inkscape:window-width="1234"
     inkscape:document-units="px"
     inkscape:grid-bbox="true"
     showgrid="true"
     inkscape:current-layer="layer1"
     inkscape:cy="17.051875"
     inkscape:cx="17.724275"
     inkscape:zoom="16.732407"
     inkscape:pageshadow="2"
     inkscape:pageopacity="0.0"
     borderopacity="1.0"
     bordercolor="#666666"
     pagecolor="#ffffff"
     id="base"
     showguides="true">
    <inkscape:grid
       type="xygrid"
       id="grid3362" />
  </sodipodi:namedview>
  <metadata
     id="metadata3359">
    <rdf:RDF>
      <cc:Work
         rdf:about="">
        <dc:format>image/svg+xml</dc:format>
        <dc:type
           rdf:resource="http://purl.org/dc/dcmitype/StillImage" />
        <dc:title></dc:title>
      </cc:Work>
    </rdf:RDF>
  </metadata>
  <g
     id="layer1"
     inkscape:label="Layer 1"
     inkscape:groupmode="layer">
    <path
       style="color:#000000;font-style:normal;font-variant:normal;font-weight:normal;font-stretch:normal;font-size:medium;line-height:normal;font-family:sans-serif;text-indent:0;text-align:start;text-decoration:none;text-decoration-line:none;text-decoration-style:solid;text-decoration-color:#000000;letter-spacing:normal;word-spacing:normal;text-transform:none;direction:ltr;block-progression:tb;writing-mode:lr-tb;baseline-shift:baseline;text-anchor:start;white-space:normal;clip-rule:nonzero;display:inline;overflow:visible;visibility:visible;opacity:1;isolation:auto;mix-blend-mode:normal;color-interpolation:sRGB;color-interpolation-filters:linearRGB;solid-color:#000000;solid-opacity:1;fill:#000000;fill-opacity:1;fill-rule:nonzero;stroke:none;stroke-width:0.5;stroke-linecap:butt;stroke-linejoin:miter;stroke-miterlimit:4;stroke-dasharray:none;stroke-dashoffset:0;stroke-opacity:1;color-rendering:auto;image-rendering:auto;shape-rendering:auto;text-rendering:auto;enable-background:accumulate"
       d="M 22 1 L 1 2 L 1 28 L 22 31 L 31 26 L 31 2 L 22 1 z M 7.8925781 7.1230469 C 8.6421896 7.1233551 9.3951656 7.7494889 9.4003906 9 L 9.4003906 13.699219 C 9.4028696 16.196906 6.3902306 16.242371 6.4003906 13.699219 L 6.4003906 9 C 6.3967201 7.7482561 7.1429667 7.1227387 7.8925781 7.1230469 z M 14.494141 7.1230469 C 15.243752 7.1233551 15.994775 7.7494889 16 9 L 16 14 C 16.002479 16.497687 12.98984 16.543152 13 14 L 13 9 C 12.996329 7.7482561 13.744529 7.1227387 14.494141 7.1230469 z "
       id="path4368" />
  </g>
</svg>

<svg id="Calque_1" data-name="Calque 1" xmlns="http://www.w3.org/2000/svg" viewBox="0 0 32 32"><title>stannoir</title><g id="layer1"><path id="path4368" d="M22,1,1,2V28l21,3,9-5V2ZM7.89,7.12c.75,0,1.5.63,1.51,1.88v4.7c0,2.5-3,2.54-3,0V9C6.4,7.75,7.14,7.12,7.89,7.12Zm6.6,0c.75,0,1.5.63,1.51,1.88v5c0,2.5-3,2.54-3,0V9C13,7.75,13.74,7.12,14.49,7.12Z"/></g></svg>
